blockchains/ethereum/assets/0x7Fc66500c84A76Ad7e9c93437bFc5Ac33E2DDaE9/logo.svg

<svg fill="none" height="250" viewBox="0 0 250 250" width="250" xmlns="http://www.w3.org/2000/svg" xmlns:xlink="http://www.w3.org/1999/xlink"><linearGradient id="a" gradientUnits="userSpaceOnUse" x1="215.402" x2="34.9823" y1="48.9333" y2="200.738"><stop offset="0" stop-color="#b6509e"/><stop offset="1" stop-color="#2ebac6"/></linearGradient><path d="m125 246.25c66.965 0 121.25-54.285 121.25-121.25 0-66.9645-54.285-121.25-121.25-121.25-66.9645 0-121.25 54.2855-121.25 121.25 0 66.965 54.2855 121.25 121.25 121.25z" fill="url(#a)"/><path d="m178.062 173.313-41-99.1255c-2.312-5.125-5.749-7.625-10.281-7.625h-3.625c-4.531 0-7.968 2.5-10.281 7.625l-17.8437 43.1875h-13.5001c-4.0312.031-7.3125 3.281-7.3437 7.344v.094c.0312 4.031 3.3125 7.312 7.3437 7.343h7.2501l-17.0313 41.157c-.3125.906-.5 1.843-.5 2.812 0 2.313.7187 4.125 2 5.531 1.2812 1.407 3.125 2.094 5.4375 2.094 1.5313-.031 3-.5 4.2187-1.406 1.3125-.906 2.2188-2.219 2.9376-3.719l18.7502-46.5h13c4.031-.031 7.312-3.281 7.343-7.344v-.187c-.031-4.031-3.312-7.313-7.343-7.344h-6.938l14.313-35.6562 39 97.0002c.719 1.5 1.625 2.812 2.937 3.719 1.219.906 2.719 1.375 4.219 1.406 2.312 0 4.125-.688 5.437-2.094 1.313-1.406 2.001-3.219 2.001-5.531.031-.938-.125-1.906-.501-2.781z" fill="#fff"/></svg>

<svg width="250" height="250" viewBox="0 0 250 250" fill="none" xmlns="http://www.w3.org/2000/svg">
<path d="M125 246.25C191.965 246.25 246.25 191.965 246.25 125C246.25 58.0355 191.965 3.75 125 3.75C58.0355 3.75 3.75 58.0355 3.75 125C3.75 191.965 58.0355 246.25 125 246.25Z" fill="url(#paint0_linear_48_12544)"/>
<path d="M178.062 173.313L137.062 74.1875C134.75 69.0625 131.313 66.5625 126.781 66.5625H123.156C118.625 66.5625 115.188 69.0625 112.875 74.1875L95.0313 117.375H81.5312C77.5 117.406 74.2187 120.656 74.1875 124.719V124.813C74.2187 128.844 77.5 132.125 81.5312 132.156H88.7813L71.75 173.313C71.4375 174.219 71.25 175.156 71.25 176.125C71.25 178.438 71.9687 180.25 73.25 181.656C74.5312 183.063 76.375 183.75 78.6875 183.75C80.2188 183.719 81.6875 183.25 82.9062 182.344C84.2187 181.438 85.125 180.125 85.8438 178.625L104.594 132.125H117.594C121.625 132.094 124.906 128.844 124.937 124.781V124.594C124.906 120.563 121.625 117.281 117.594 117.25H110.656L124.969 81.5938L163.969 178.594C164.688 180.094 165.594 181.406 166.906 182.313C168.125 183.219 169.625 183.688 171.125 183.719C173.437 183.719 175.25 183.031 176.562 181.625C177.875 180.219 178.563 178.406 178.563 176.094C178.594 175.156 178.438 174.188 178.062 173.313Z" fill="white"/>
<defs>
<linearGradient id="paint0_linear_48_12544" x1="215.402" y1="48.9333" x2="34.9823" y2="200.738" gradientUnits="userSpaceOnUse">
<stop stop-color="#B6509E"/>
<stop offset="1" stop-color="#2EBAC6"/>
</linearGradient>
</defs>
</svg>
